!!!COM:	Josquin des Pres?
**kern	**kern
*part2	*part1
*staff2	*staff1
*clefGv2	*clefGv2
*k[b-]	*k[b-]
*M2/1	*M2/1
=1-	=1-
1.G	0r
4F	.
4G	.
=2	=2
2A	1.A
2F	.
1F	.
.	4G
.	4A
=3	=3
2r	2B-
1B-	2G
.	1G
4A	.
4B-	.
=4	=4
2c	2r
2A	1c
1A	.
.	4B-
.	4c
=5	=5
2r	2d
1G	2B-
.	1B-
4F	.
4G	.
=6	=6
4A	2r
4G	.
4F	1A
4E	.
1F	.
.	4G
.	4A
=7	=7
1G	4B-
.	4A
.	4G
.	4F
2r	1G
2G	.
=8	=8
2F	1A
2.A	.
.	2r
4B-	.
4c	2A
4A	.
=9	=9
2B-	2G
2G	2.B-
1G	.
.	4c
.	4d
.	4B-
=10	=10
1r	2c
.	2A
1c	1A
=11	=11
2B-	1r
2.d	.
.	1d
4e	.
4f	.
4d	.
=12	=12
2e	2c
2c	2.e
1c	.
.	4f
.	4g
.	4e
=13	=13
2r	2f
1f	2d
.	1d
4e	.
4d	.
=14	=14
2e	2r
2c	1g
1e	.
.	4f
.	4e
=15	=15
1d	2f
.	2d
2r	1f
2d	.
=16	=16
2c	1e
2A	.
1c	2r
.	2e
=17	=17
2B-	2d
2G	2B-
1B-	1d
=18	=18
2A	2c
1c	2A
.	1c
4B-	.
4A	.
=19	=19
2G	2B-
1B-	1d
4A	4c
4G	4B-
=20	=20
1F	2A
.	1c
2.c	.
.	4B-
4d	4A
=21	=21
2e	1G
2d	.
2B-	2.d
[2d	.
.	4e
=22	=22
2d]	2f
2c	2e
2A	2c
[2c	[2e
=23	=23
2c]	2e]
2B-	2d
1G	2B-
.	[2d
=24	=24
1r	2d]
.	2c
1c	1A
=25	=25
2.B-	1r
4A	.
2F	1d
2G	.
=26	=26
1C	2.c
.	4B-
2r	2G
2c	2A
=27	=27
2d	1D
1f	.
.	2r
4e	2d
4d	.
=28	=28
1c	2e
.	1g
1B-	.
.	4f
.	4e
=29	=29
2r	1d
2B-	.
2A	1c
[2c	.
=30	=30
2c]	2r
4B-	2c
4A	.
1G	2B-
.	[2d
=31	=31
1F	2d]
.	4c
.	4B-
2r	1A
2F	.
=32	=32
2G	1G
2C	.
1G	2r
.	2G
=33	=33
1F	2A
.	2D
2r	1A
2F	.
=34	=34
2G	1G
2C	.
1G	2r
.	2G
=35	=35
1F	2A
.	2D
2r	1A
2c	.
=36	=36
2d	1G
2e	.
2f	2r
2B-	2d
=37	=37
2c	2e
2d	2f
2G	2g
2A	2c
=38	=38
2B-	2d
2.c	2e
.	2A
4B-	.
2G	2B-
=39	=39
2A	2c
2B-	2.d
2F	.
.	4c
[2f	2A
=40	=40
2f]	2B-
2e	2c
2d	2G
2c	[2g
=41	=41
2B-	2g]
2A	2f
2.G	2e
.	2d
8FL	.
8GJ	.
=42	=42
2A	2c
1G	2B-
.	2.A
2F	.
.	8GL
.	8AJ
=43	=43
2G	2B-
2A	1A
1B-	.
.	2G
=44	=44
0A	0A
==	==
*-	*-
